svgs/sharp-solid/plus.svg

<svg xmlns="http://www.w3.org/2000/svg" viewBox="0 0 448 512"><!--! Font Awesome Pro 6.6.0 by @fontawesome - https://fontawesome.com License - https://fontawesome.com/license (Commercial License) Copyright 2024 Fonticons, Inc. --><path d="M256 80l0-32-64 0 0 32 0 144L48 224l-32 0 0 64 32 0 144 0 0 144 0 32 64 0 0-32 0-144 144 0 32 0 0-64-32 0-144 0 0-144z"/></svg>

<svg xmlns="http://www.w3.org/2000/svg" viewBox="0 0 448 512"><!--! Font Awesome Pro 6.4.0 by @fontawesome - https://fontawesome.com License - https://fontawesome.com/license (Commercial License) Copyright 2023 Fonticons, Inc. --><path d="M256 80V48H192V80 224H48 16v64H48 192V432v32h64V432 288H400h32V224H400 256V80z"/></svg>
